X: 12
T: Missa La belle se siet / Kyrie
N: Derived from Ort1003a-Missa_La_belle_se_siet-Kyrie.krn
C: Marbrianus de Orto
%%abc-version 2.0
%%abcx-abcm2ps-target-version 5.9.1 (29 Sep 2008)
%%abc-creator hum2abc beta
%%abcx-conversion-date 2019/02/17 07:28:37
%%abc-edited-by Jesse Rodin
%%abc-edited-by Jesse Rodin 8/10/2013
%%abcx-initial-encoding-date 2013/08/10/
%%humdrum-veritas 1326226276
%%humdrum-veritas-data 2234541481
%%linebreak <none>
%%barnumbers 0
L: 1/4
M: 3/1
Q: 1/2=120
%%staves [1 2 3 4]
V: 1 clef=treble
V: 2 clef=treble-8
V: 3 clef=treble-8
V: 4 clef=bass
K: F
[V:1] F8F4 | 
[V:2] F4F3GA2B2- | 
[V:3] z12 | 
[V:4] z12 | 
[V:1] G3AB2A4G2 | 
[V:2] B2c2d3cB4 | 
[V:3] z12 | 
[V:4] z12 | 
[V:1] A4z2G2A2B2 | 
[V:2] A4e8 | 
[V:3] F3GABc3BG2 | 
[V:4] z12 | 
[V:1] c8B4 | 
[V:2] e6f2d4 | 
[V:3] A4G2F2G4 | 
[V:4] z12 | 
[V:1] G4A8 | 
[V:2] z2d3ef3edc | 
[V:3] G4d8 | 
[V:4] z4D,8 | 
[V:1] G4z2G3FGA | 
[V:2] B3cd2B2c4 | 
[V:3] G4F2G2E4 | 
[V:4] _E,4D,2E,2C,4 | 
[V:1] B6ABcBAG | 
[V:2] d4g4e4 | 
[V:3] F2G2D2d4c2 | 
[V:4] B,,2G,,2G,,4A,,4 | 
[V:1] F4G2A4B2 | 
[V:2] d2B2c2F2f4 | 
[V:3] d4e2c2d4 | 
[V:4] B,,2D,2C,2F,4B,,2 | 
[V:1] G2A3FF4E2 | 
[V:2] e2f2e2d2c4 | 
[V:3] c2A2c2B2G4 | 
[V:4] C,2F,,2A,,2B,,2C,4 | 
[V:1] F8z4 | 
[V:2] A4B2c2d4 | 
[V:3] F4z2F4G2 | 
[V:4] F,,4B,,2A,,2B,,4 | 
[V:1] F6G2A4 | 
[V:2] c2A2d4f4 | 
[V:3] A4B4z2A2 | 
[V:4] z2D,2B,,2G,,2D,2F,2- | 
[V:1] A8c4 | 
[V:2] z2e2d4e3d | 
[V:3] c3BA4G4 | 
[V:4] F,E,C,2D,2F,2C,3B,, | 
[V:1] c4B2G2A4 | 
[V:2] cBA2d8 | 
[V:3] z2A4G4F2 | 
[V:4] A,,G,,F,,2G,,4D,4 | 
[V:1] G2A3GG4^F2 | 
[V:2] z2d4c2d4 | 
[V:3] G2F2G4A4 | 
[V:4] _E,2D,2E,4D,4 | 
[V:1] G8B4- | 
[V:2] B4z4f4- | 
[V:3] G4B6AG | 
[V:4] z2_E,4D,C,B,,4 | 
[V:1] B4F8 | 
[V:2] f4d8 | 
[V:3] F4z2F2A2B2 | 
[V:4] B,,4D,8- | 
[V:1] A4B4G4 | 
[V:2] d4d4cBAG | 
[V:3] A2F2G4z2c2- | 
[V:4] D,4G,,4C,3B,, | 
[V:1] z2F2A3BG2F2 | 
[V:2] A2F2f4e2d2 | 
[V:3] cBAGF4z2B2 | 
[V:4] A,,2D,3E,F,2C,2D,2- | 
[V:1] A2B2G2F2c3B | 
[V:2] z4z4G2A2- | 
[V:3] A2GABcd2e2c2- | 
[V:4] D,F,E,4D,2C,B,,A,,G,, | 
[V:1] A2G3FF4E2 | 
[V:2] A2d2ec2Bc4- | 
[V:3] c2B2c2F2G4 | 
[V:4] F,,2G,,2C,2D,2C,4 | 
[V:1] F12 ||  
[V:2] c12 ||  
[V:3] F12 ||  
[V:4] F,,12 ||  
[V:1]  [K:F] [K:clef=treble][M:2/1]z8 | 
[V:2]  [K:F] [K:clef=treble-8][M:2/1]c8 | 
[V:3]  [K:F] [K:clef=treble-8][M:2/1]z8 | 
[V:4]  [K:F] [K:clef=bass][M:2/1]z8 | 
[V:1] z8 | 
[V:2] d4c4 | 
[V:3] z8 | 
[V:4] z4C,4 | 
[V:1] z8 | 
[V:2] B4A2A2- | 
[V:3] z4c4 | 
[V:4] D,4C,4 | 
[V:1] z8 | 
[V:2] A2G2A4 | 
[V:3] d4c4 | 
[V:4] B,,4A,,4 | 
[V:1] G8 | 
[V:2] z4d4 | 
[V:3] B8 | 
[V:4] z8 | 
[V:1] A4G4 | 
[V:2] e8 | 
[V:3] A4c4 | 
[V:4] z4C,4 | 
[V:1] F8 | 
[V:2] A2B3AFG | 
[V:3] z4d4- | 
[V:4] D,2B,,3C,D,2 | 
[V:1] E8 | 
[V:2] A4z4 | 
[V:3] d4c4 | 
[V:4] A,,4A,4- | 
[V:1] z8 | 
[V:2] z8 | 
[V:3] B8 | 
[V:4] A,2G,F,G,4 | 
[V:1] c8 | 
[V:2] ABcde2f2- | 
[V:3] A8 | 
[V:4] A,6F,2 | 
[V:1] d4c4 | 
[V:2] f2d2e2f2 | 
[V:3] z8 | 
[V:4] B,4A,4 | 
[V:1] B8 | 
[V:2] g2f4e2 | 
[V:3] z8 | 
[V:4] G,8 | 
[V:1] A8 | 
[V:2] f8 | 
[V:3] c8 | 
[V:4] F,8 | 
[V:1] B4A4 | 
[V:2] f4F4 | 
[V:3] d4c4 | 
[V:4] B,,4F,,4 | 
[V:1] G2FED4 | 
[V:2] D4G4 | 
[V:3] B8 | 
[V:4] G,,8 | 
[V:1] C8 | 
[V:2] E2F2E2A2- | 
[V:3] A8 | 
[V:4] A,,4z2C,2 | 
[V:1] z2C2D4 | 
[V:2] A2GFG4 | 
[V:3] z8 | 
[V:4] D,2C,2B,,4 | 
[V:1] E4F2E2 | 
[V:2] A4z2A2 | 
[V:3] c4d2c2 | 
[V:4] A,,4z4 | 
[V:1] F2D2E4 | 
[V:2] d2d4c2 | 
[V:3] B4A4 | 
[V:4] z4A,,4 | 
[V:1] D2F3EG2- | 
[V:2] d2B2A2c2 | 
[V:3] z8 | 
[V:4] B,,2D,4C,2 | 
[V:1] GFEDC2D2 | 
[V:2] d4z2d2 | 
[V:3] G4A2G2 | 
[V:4] B,,4A,,2B,,2 | 
[V:1] z4G4 | 
[V:2] c2d4cB | 
[V:3] F4E4 | 
[V:4] A,,2F,,2G,,4 | 
[V:1] A3GF4 | 
[V:2] A2c2d4 | 
[V:3] z8 | 
[V:4] F,,4B,,4 | 
[V:1] E2C2D4 | 
[V:2] c4B4 | 
[V:3] G8 | 
[V:4] C,2B,,A,,G,,4 | 
[V:1] z8 | 
[V:2] A4c2d2- | 
[V:3] A4G4 | 
[V:4] F,,4C,2B,,2- | 
[V:1] z8 | 
[V:2] d2c2B4 | 
[V:3] F8 | 
[V:4] B,,2A,,2D,4 | 
[V:1] z4EFGA | 
[V:2] A4c4 | 
[V:3] E8 | 
[V:4] A,,4z4 | 
[V:1] B2A4c2 | 
[V:2] d4c4 | 
[V:3] z8 | 
[V:4] z8 | 
[V:1] B2A4G2 | 
[V:2] d2c2B4 | 
[V:3] z2c2d4 | 
[V:4] z8 | 
[V:1] A3GF2E2 | 
[V:2] A4B2c2 | 
[V:3] c4d2c2 | 
[V:4] A,,4z2A,,2 | 
[V:1] z2G2A3G | 
[V:2] d4z2c2 | 
[V:3] B4A4 | 
[V:4] G,,4F,,4 | 
[V:1] F2E2z4 | 
[V:2] d2c2c4 | 
[V:3] z2G2A3G | 
[V:4] B,,2C,4A,,2 | 
[V:1] c4d2c2 | 
[V:2] z2A2G2A2 | 
[V:3] F2E2z2c2 | 
[V:4] A,,4B,,2A,,2 | 
[V:1] B4A4 | 
[V:2] F2G2F2A2 | 
[V:3] d4z2c2 | 
[V:4] B,,2G,,2D,2F,2- | 
[V:1] z2E2GFED | 
[V:2] z8 | 
[V:3] d2c2B4 | 
[V:4] F,G,A,4G,2 | 
[V:1] C2F4E2 | 
[V:2] z4z2G2 | 
[V:3] A4z4 | 
[V:4] A,2F,2G,4 | 
[V:1] F2E2A2G2 | 
[V:2] A2G2F2G2 | 
[V:3] c8 | 
[V:4] F,2C,2F,2E,2 | 
[V:1] F4E2A2- | 
[V:2] A8 | 
[V:3] d4c4 | 
[V:4] D,4A,,4 | 
[V:1] A2G2z2G2 | 
[V:2] d8- | 
[V:3] B8 | 
[V:4] z4G,,4 | 
[V:1] A2G2F4 | 
[V:2] d8 | 
[V:3] A8 | 
[V:4] D,8 | 
[V:1] E8 | 
[V:2] G4A2A2- | 
[V:3] c8 | 
[V:4] C,4A,,4 | 
[V:1] z4A4- | 
[V:2] A2d2e4 | 
[V:3] d4c4 | 
[V:4] B,,4A,,4 | 
[V:1] A4G4 | 
[V:2] d8- | 
[V:3] B8 | 
[V:4] z8 | 
[V:1] F8 | 
[V:2] d8 | 
[V:3] A8- | 
[V:4] D,8 | 
[V:1] E8- | 
[V:2] c6BA | 
[V:3] A8 | 
[V:4] A,,8 | 
[V:1] E8- | 
[V:2] G8- | 
[V:3] z4c4- | 
[V:4] C,8- | 
[V:1] E8- | 
[V:2] G8- | 
[V:3] c8 | 
[V:4] C,8- | 
[V:1] E8 ||  
[V:2] G8 ||  
[V:3] c8 ||  
[V:4] C,8 ||  
[V:1]  [K:F] [K:clef=treble][M:3/1]z12 | 
[V:2]  [K:F] [K:clef=treble-8][M:3/1]z12 | 
[V:3]  [K:F] [K:clef=treble-8][M:3/1]F8F4 | 
[V:4]  [K:F] [K:clef=bass][M:3/1]F,6E,2D,4 | 
[V:1] z12 | 
[V:2] z12 | 
[V:3] G8G4 | 
[V:4] C,4B,,8 | 
[V:1] E8F4 | 
[V:2] c6A2A2c2- | 
[V:3] A12- | 
[V:4] A,,4C,4F,,4 | 
[V:1] E4D8 | 
[V:2] cBAGF4F4 | 
[V:3] A8A4 | 
[V:4] C,4D,8 | 
[V:1] E4A6G2 | 
[V:2] E4z2c2d2d2- | 
[V:3] c8B4 | 
[V:4] A,,4F,4D,4 | 
[V:1] G8^F4 | 
[V:2] d2c2d8 | 
[V:3] G4A8 | 
[V:4] E,4D,8 | 
[V:1] G6FED4- | 
[V:2] B3cd2G3AB2- | 
[V:3] G12- | 
[V:4] G,,3A,,B,,2C,2B,,4- | 
[V:1] D4B6AG | 
[V:2] Bcd3cBAG2c2 | 
[V:3] G12 | 
[V:4] B,,2G,,2G,,2G,4F,E, | 
[V:1] F4z2G4F2 | 
[V:2] d8d4 | 
[V:3] B12 | 
[V:4] D,2B,,4G,,A,,B,,C,D,2 | 
[V:1] GFEDC2z2F2G2 | 
[V:2] G4A2F2D2c2 | 
[V:3] B4c2B2A2G2 | 
[V:4] B,,4A,,2D,4_E,2 | 
[V:1] A2B2c4cBAG | 
[V:2] d4c2e4f2- | 
[V:3] F6G2A4 | 
[V:4] D,2C,B,,A,,2C,4D,2- | 
[V:1] F2G3FF4E2 | 
[V:2] f2edc2B2c4 | 
[V:3] B4A2F2G4 | 
[V:4] D,2E,2F,2D,2C,4 | 
[V:1] F4z4c4 | 
[V:2] A2c3BAGF2f2- | 
[V:3] F12 | 
[V:4] F,,12 | 
[V:1] c4B2A4GF | 
[V:2] fedcd2c4=B2 | 
[V:3] F8F4 | 
[V:4] z4B,,2C,2D,4 | 
[V:1] E4D2E3FG2 | 
[V:2] c4z2G2c2B2 | 
[V:3] G8G4 | 
[V:4] C,4B,,2C,3B,,G,,2 | 
[V:1] F2E4D2E4 | 
[V:2] A2c3Ad4^c2 | 
[V:3] A12- | 
[V:4] D,2C,2D,4A,,4 | 
[V:1] z2F3EC4A2- | 
[V:2] d4f2e4c2 | 
[V:3] A8A4 | 
[V:4] D,6A,,2A,,4 | 
[V:1] AGE3FG3FD2- | 
[V:2] c4z2G3AB2- | 
[V:3] c8B4 | 
[V:4] z2A,3G,E,3F,G,2- | 
[V:1] D2B4AGG2^F2 | 
[V:2] Bcd8d2 | 
[V:3] G4A8 | 
[V:4] G,2G,,2D,4D,4 | 
[V:1] G4B8 | 
[V:2] _e4d8 | 
[V:3] G12- | 
[V:4] z4G,,8 | 
[V:1] c4c2B4AG | 
[V:2] c4z4d4- | 
[V:3] G12 | 
[V:4] C,6G,,2G,,4 | 
[V:1] F4z4z4 | 
[V:2] d4G2F2B2G2 | 
[V:3] B12 | 
[V:4] z2D,2_E,2D,2B,,2E,2 | 
[V:1] z2B2A2G2c4 | 
[V:2] d4z2d2f2e2 | 
[V:3] B4c2B2A2G2 | 
[V:4] D,2G,2F,2G,2F,2C,2 | 
[V:1] z2C2D2E2F2A2- | 
[V:2] d2c2B2c4f2- | 
[V:3] F6G2A4 | 
[V:4] D,2A,,2B,,D,C,2F,4 | 
[V:1] A2G4F4E2 | 
[V:2] f2_e2dc2Bc4- | 
[V:3] B4A2F2G4 | 
[V:4] B,,2_E,2F,2D,2C,4 | 
[V:1] F12 |]  
[V:2] c12 |]  
[V:3] F12 |]  
[V:4] F,,12 |]  



